X:1
T:E minor, G major Timothy Swan, 1801
T:Isaac Watts, 1717 (Psalm 56)                      86. 86. (C. M.)
T:Digby
T:Transcribed from Swan's New England Harmony, 1801.
%%score [ 1 2 3 4 ]
L:1/8
Q:1/8=200
M:4/4
K:G
V:1 treble nm="Tr." snm="Tr."
V:2 treble nm="C." snm="C."
V:3 treble-8 nm="T." snm="T."
V:4 bass nm="B." snm="B."
V:1
"^3. In     thee,           most ho–ly,  just,    and  true,          I         have  reposed my trust;     Nor  will   I   fear   what  man   can     do,""^1. God  counts      the  sorrows  of      his  saints,      Their groans  af – fect his ears;   Thou hast  a  book  for    my    com–plaints,""^2. When  to            thy  throne  I  raise  my cry,           The     wick – ed   fear and flee;    So    swift is prayer to   reach  the    sky," B4 | %1
 (B3 A G2) G2 | d4 d4 | d6 d2 | B8- | B4 (B2 d2) | e8 | (e2 B2) A2 G2 | A8 | (d2 g2) B2 B2 | %10
 B4 d4 | d4 d4 | B8 | z8 | %14
"^1. A     bottle    for   my    tears,                                   A              bottle  for  my  tears,    A        bottle   for  my   tears.""^2. So   near  is  God  to     me,                                      So            near is  God  to   me,      So      near  is  God  to  me.""^3. The  offspring  of  the  dust,                                  The      offspring  of  the  dust,    The  offspring  of  the  dust." B4 e2 e2 | %15
 f4 f4 | e8 | z4 d4 | g2 g2 e2 e2 | B4 g4 | g2 d2 d2 d2 | B8 |] %22
V:2
 E4 | (G3 A B2) G2 | A4 B4 | B4 B4 | B8 | z4 B4 | G8 | G4 A2 B2 | A8 | G4 B2 B2 | B4 (G2 F2) | %11
 (E2 D2) F4 | G8 | z8 | z8 | %15
"^1. A                bottle  for my   tears, ____________________                   A       bot tle   for         my        tears.""^2. So              near is God to   me,  ______________________                   So     near is   God       to           me.""^3. The           offspring of the dust, ____________________                   The  offspring  of       the         dust." B8 | %16
 G2 B2 G2 G2 | B8- | B8 | G4 G2 B2 | D4 [FA]4 | G8 |] %22
V:3
"^1. God  counts      the  sorrows  of      his  saints,      Their groans  af – fect his ears;   Thou hast  a  book  for    my  complaints,  A  bottle""^2. When  to            thy  throne  I  raise  my cry,           The     wick – ed   fear and flee;    So    swift is prayer to   reach  the   sky,    So near is""^3. In     thee,           most ho–ly,  just,    and  true,          I         have  reposed my trust;     Nor  will   I   fear   what  man  can  do,   The offspring" E4 | %1
 B6 B2 | A4 d4 | B4 (g2 f2) | e8 | z4 B4 | c8 | B4 A2 G2 | d8 | B4 e2 g2 | f4 d4 | B4 A4 | G8 | %13
 e4 B2 A2 | %14
"^1. for    my         tears, ____________            A     bot tle   for  my  tears,                   A       bot tle    for         my       tears.""^2. God   to          me,  ______________            So   near is  God  to    me,                      So    near  is   God        to          me.""^3. of      the         dust, _____________         The  offspring  of  the  dust,                 The  offspring  of          the      dust." d4 c4 | %15
 B8- | B6 B2 | g2 g2 f2 f2 | e8 | d4 g2 d2 | (B2 G2) A4 | [GB]8 |] %22
V:4
 E,4 | E,6 G,2 | D,4 B,,4 | G,4 B,4 | E,8- | E,4 G,4 | C,8 | E,4 F,2 G,2 | D,8 | %9
 (B,2 G,2) E,2 E,2 | B,4 B,4 | D4 D,4 | G,8 | z8 | %14
"^1. A      bottle    for   my    tears, __________________        A            bottle  for  my  tears,   A          bottle   for  my  tears.""^2. So    near is   God  to     me, ____________________         So        near is  God  to   me,      So       near  is  God  to   me.""^3. The  offspring  of  the  dust, __________________         The      offspring of the dust,   The    offspring  of  the  dust.""^4. O Thou whose justice reigns on high,\nAnd makes th' oppressor cease,\nBehold how envious sinners try\nTo vex and break my peace.\n5. The sons of violence and lies\nJoin to devour me, Lord;\nBut as my hourly dangers rise,\nMy refuge is thy word.\n6. They wrest my words to mischief still,\nCharge me with unknown faults;\nMischief doth all their counsels fill,\nAnd malice all their thoughts." G,4 A,2 A,2 | %15
 B,4 B,,4 | E,8- | %17
 E,4"^7. Shall they escape without thy frown?\nMust their devices stand?\nO cast the haughty sinner down,\nAnd let him know thy hand.\n8. Thy solemn vows are on me, Lord,\nThou shalt receive my praise;\nI'll sing, \"How faithful is thy word,\nHow righteous all thy ways!\"\n9. Thou hast secured my soul from death,\nO set thy prisoner free!\nThat heart and hand, and life and breath,\nMay be employ'd for thee." B,,4 | %18
 E,2 E,2 E,2 E,2 | G,4 G,4 | B,,2 B,,2 D,2 D,2 | G,8 |] %22

